X:1
T:Early Ere the Dawn of the Morning
T:Early Ere the Dawn of the Morning
T:John Henry Hopkins, Jr.
T:John Henry Hopkins, Jr. (1820-1891)
T:Public Domain Courtesy of the Cyber Hymnal™
T:Public Domain Courtesy of the Cyber Hymnal™
C:John Henry Hopkins, Jr.
Z:Public Domain
Z:Courtesy of the Cyber Hymnal™
%%score 1 ( 2 3 ) ( 4 5 )
L:1/8
Q:1/4=85
M:6/8
K:Bb
V:1 treble 
V:2 treble 
V:3 treble 
V:4 bass 
V:5 bass 
V:1
 D2 D F2 F | GFG A2 G | ABc B2 A | G3 F2 z | D2 D F2 F | GFG A2 G | ABc d2 c | B3 B2 z | dcB A2 G | %9
w: 1.~Ear- ly ere the|dawn of the morn- ing,|Af- ter the earth- quake|thun- der—|By the tomb, now|emp- ty and o- pen,|Je- sus had burst a-|sun- der—|An- gels of light sat|
w: 2.~Weep- ing now the|wo- men draw nigh them,|Spic- es and oint- ment|bring- ing;|See them start, and,|thrill- ing with rap- ture,|List to the an- gels|sing- ing—|“Be of good cheer, for|
w: 3.~“Go,” say they, “and|tell the E- lev- en,|If they would glad- ly|greet Him,|Soon from hence to|Gal- i- lee go- ing,|There shall they sure- ly|meet Him.”|Hear- ing it, lo! with|
w: 4.~Won- d’ring, doubt- ing,|hop- ing and fear- ing,|All the day long they|trem- bled;|Till His “Peace be|with you” was breath- èd|On the E- lev’n as-|sem- bled;|Joy- ful- ly then they|
w: 5.~Eas- ter day is|come in its glo- ry;|Sing, bro- thers, Al- le-|lu- ia;|Saints tri- umph- ant|join in the chor- us,|E- cho- ing, Al- le-|lu- ia.|An- gels on high re-|
 cBA G2 F | BAG F2 =E | F3- F2 z |] x6 | x6 | x6 | x6 |] %16
w: cloth- èd in white, And|sing- ing with all their|might— *|||||
w: He is not here, But|ris- en and stand- eth|near.” *|||||
w: joy they o’er- flow, And|sing as they home- ward|go— *|||||
w: wor- ship a- gain, And|swell the loud Eas- ter|strain: *|||||
w: sound thro’ the sky E-|ter- nal- ly Alle- lu-|ia. *|||||
V:2
 [B,D]2 [B,D] [CF]2 [CF] | [EG][DF][EG] [^FA]2 G | [^FA][GB][Ac] [GB]2 [=FA] | [=EG]3 [CF]2 z | %4
w: ~ ~ ~ ~|~ ~ ~ ~ ~|~ ~ ~ ~ ~|~ ~|
 [B,D]2 [B,D] [CF]2 [CF] | [EG][DF][EG] [^FA]2 [DG] | [FA][FB][Ec] [Dd]2 [Ac] | B3 [DB]2 z | %8
w: ~ ~ ~ ~|~ ~ ~ ~ ~|~ ~ ~ ~ ~|~ ~|
 [Bd][Ac][GB] [EA]2 [EG] | [Ec][EB][EA] [DG]2 [DF] | [GB][FA][EG] [CF]2 [C=E] | F3- [CF]2 z |] %12
w: ~ ~ ~ ~ ~|~ ~ ~ ~ ~|~ ~ ~ ~ ~|~ He|
"^Refrain" [B,D][B,D][B,D] [CF]2 [CF] | [EG][DF][EG] [^FA]2 G | %14
w: * that was now ris-|en a- gain, For- ev-|
 [DB][Fc][Fd] !fermata![Ge]2 [Fd]/[Fd]7/16 x/16 | [Fc]3 [DB]3 |] %16
w: er shall reign, Al- le- lu-|ia. *|
V:3
 x6 | x5 G | x6 | x6 | x6 | x6 | x6 | (G2 E) x3 | x6 | x6 | x6 | F2 D x3 |] x6 | x5 G | x6 | x6 |] %16
V:4
 [G,B,]2 [G,B,] [F,A,]2 [F,A,] | [E,B,][B,,B,][E,B,] [D,D]2 [G,B,] | %2
 [D,D][D,D][^F,,D] [G,,B,]2 [A,,C] | [C,C]3 [F,A,]2 z | B,2 [G,B,] [F,A,]2 [F,A,] | %5
 [E,B,][B,,B,][E,B,] [D,C]2 [G,B,] | [F,C][D,B,][C,A,] [B,,B,]2 [D,B,] | B,3 [B,,F,]2 z | %8
 [G,B,][A,C][B,D] C2 C | [F,A,][G,B,][A,C] B,2 B, | [E,G,][F,A,][G,B,] [A,C]2 C | %11
 (F,2 B, [F,A,]2) z |] B,B,[G,B,] [F,A,]2 [F,A,] | [E,B,][B,,B,][E,B,] [D,D]2 [G,B,] | %14
 [G,B,][F,A,]B, !fermata![E,B,]2 B,/B,7/16 x/16 | [F,A,]3 [B,,B,]3 |] %16
V:5
 x6 | x6 | x6 | x6 | B,2 x4 | x6 | x6 | (E,2 G,) x3 | x3 C2 C | x3 B,2 B, | x5 C | F,3- x3 |] %12
 B,B, x4 | x6 | x2 B, x B,/ x3/2 | x6 |] %16

